!! J.F. Bridge, First Species counterpoint example from Bridge's "Counterpoint"
!! Novello & Co. (London) -1878, example 15, p. 6
**kern	**kern
*M2/2	*M2/2
=1	=1
1c	1c
=2	=2
1B	1d
=3	=3
1G	1e
=4	=4
1A	1f
=5	=5
1B	1d
=6	=6
1c	1e
=7	=7
1d	1f
=8	=8
1B	1g
=9	=9
1c	1e
=10	=10
1c	1a
=11	=11
1d	1f
=12	=12
1B	1g
=13	=13
1c	1e
=14	=14
1A	1f
=15	=15
1B	1d
=16	=16
1c	1c
==	==
*-	*-
